src/icons/webpack.svg

<svg width="16" height="16" viewBox="0 0 16 16" fill="none" xmlns="http://www.w3.org/2000/svg">
<path fill-rule="evenodd" clip-rule="evenodd" d="M7.87602 3C7.75961 2.99735 7.64495 3.02862 7.54602 3.09L2.97202 5.337C2.88361 5.37417 2.80776 5.43598 2.7535 5.51505C2.69925 5.59413 2.66888 5.68715 2.66602 5.783V11.219C2.66602 11.412 2.78602 11.579 2.97202 11.665L7.54602 13.91C7.63902 13.97 7.75502 14.001 7.87602 14.001C7.99702 14.001 8.11402 13.971 8.20602 13.911L12.78 11.665C12.8686 11.628 12.9447 11.5662 12.9991 11.4872C13.0536 11.4081 13.0841 11.315 13.087 11.219V5.782C13.0841 5.68603 13.0536 5.59294 12.9991 5.51385C12.9447 5.43476 12.8686 5.37302 12.78 5.336L8.20602 3.091C8.10719 3.02927 7.99252 2.99765 7.87602 3ZM7.87602 4.088L11.93 6.08V7.144H11.92V10.647H11.93V10.92L7.87702 12.912L3.82402 10.92V6.08L7.87602 4.088ZM5.04002 6.57L7.87602 5.14L10.713 6.57L7.87602 8.002L5.04002 6.57ZM4.98202 7.708V9.518L7.29802 10.686V8.876L4.98202 7.708ZM8.45602 8.875L10.772 7.708V9.518L8.45602 10.686V8.875Z" fill="#89DDFF"/>
<path fill-rule="evenodd" clip-rule="evenodd" d="M7.87596 5.14L5.03996 6.57L7.87696 8.001L10.714 6.57L7.87596 5.14ZM4.98096 7.709V10.405L7.29696 11.572V8.876L4.98096 7.709ZM8.45496 8.876L10.771 7.709V10.405L8.45496 11.572V8.876Z" fill="#3965BD"/>
</svg>

<svg xmlns="http://www.w3.org/2000/svg" width="16" height="16" fill="none"><g fill-rule="evenodd" clip-rule="evenodd"><path fill="#89DDFF" d="M7.876 3a.6.6 0 0 0-.33.09L2.972 5.337a.5.5 0 0 0-.306.446v5.436c0 .193.12.36.306.446l4.574 2.245c.093.06.209.091.33.091s.238-.03.33-.09l4.574-2.246a.5.5 0 0 0 .307-.446V5.782a.5.5 0 0 0-.307-.446L8.206 3.091A.6.6 0 0 0 7.876 3m0 1.088L11.93 6.08v1.064h-.01v3.503h.01v.273l-4.053 1.992-4.053-1.992V6.08zM5.04 6.57 7.876 5.14l2.837 1.43-2.837 1.432zm-.058 1.138v1.81l2.316 1.168v-1.81zm3.474 1.167 2.316-1.167v1.81l-2.316 1.168z"/><path fill="#3965BD" d="M7.876 5.14 5.04 6.57l2.837 1.431 2.837-1.431zM4.981 7.709v2.696l2.316 1.167V8.876zm3.474 1.167 2.316-1.167v2.696l-2.316 1.167z"/></g></svg>
